!!!OTL: Die Unbestechliche Es reyt ein ritter wolgemut,
!!!ARE: Europa, Mitteleuropa, Deutschland
!!!YOR: 7, S. 33
!!    1535 gedruckt
!!!SCT: Q0144A
!!!YEM: Copyright 1995, estate of Helmut Schaffrath.
**kern
*ICvox
*Ivox
*M4/4
*k[b-e-]
*g:
{2g
=1
4g
4a
4b-
4g
=2
2cc
2b-
=3
2a}
{2a
=4
8g
8g
4a
4fn
4b-
=5
4a
4g
4fn
4e
=6
2d}
{2g
=7
4fn
4fn
2g
=8
8fn
8g
4a
4b-
[4cc
=9
4cc]
8dd
8cc
8b-
8a
4g
=10
2a}
{2fn
=11
4b-
4cc
2a
=12
2g}
==
!!!AGN: Ballade, Liebes - Handel
!! Rekonstruktion der fehlenden cf - Stimme aus einem dreistimmigen
!!    Satz.
!!!ONB: ESAC (Essen Associative Code) Database: BALLADE
!!!AMT: simple quadruple
!!!AIN: vox
!!!EED: Helmut Schaffrath
!!!EEV: 1.0
*-
